img/icon-chat.svg

<svg width="24" height="24" fill="none" xmlns="http://www.w3.org/2000/svg"><g clip-path="url(#a)"><path d="M20 2H4c-1.1 0-1.99.9-1.99 2L2 22l4-4h14c1.1 0 2-.9 2-2V4c0-1.1-.9-2-2-2ZM6 9h12v2H6V9Zm8 5H6v-2h8v2Zm4-6H6V6h12v2Z" fill="#8F8F8F"/></g><defs><clipPath id="a"><path fill="#fff" d="M0 0h24v24H0z"/></clipPath></defs></svg>

<svg width="24" height="24" viewBox="0 0 24 24" fill="none" xmlns="http://www.w3.org/2000/svg">
<g clip-path="url(#clip0_701_190)">
<path d="M20 2H4C2.9 2 2.01 2.9 2.01 4L2 22L6 18H20C21.1 18 22 17.1 22 16V4C22 2.9 21.1 2 20 2ZM6 9H18V11H6V9ZM14 14H6V12H14V14ZM18 8H6V6H18V8Z" fill="#8F8F8F"/>
</g>
<defs>
<clipPath id="clip0_701_190">
<rect width="24" height="24" fill="white"/>
</clipPath>
</defs>
</svg>
